X: 42618
T: Whinny Hills Of Leitrim, The
R: slip jig
M: 9/8
K: Gmajor
|:~A3 dcA d2c|A2d dcA GFG|~ A3 dcA d2e|1 fag ege dBG:|2 fag ege dBA||
|:GBB GBd ~g2(3DEF|GBB GBG FED|GBB GBd ~g3|1 ~f3 ege dBA:|2 fed ege dBG||

